svg/600/sharp/toys_and_games-fill.svg

<svg xmlns="http://www.w3.org/2000/svg" width="48" height="48" viewBox="0 -960 960 960"><path d="M853.001-283.001v216.002H106.999v-216.002h56.349q11.739 11.435 27.215 18.218 15.475 6.782 33.437 6.782 39.637 0 66.318-26.62 26.681-26.621 26.681-66.174 0-39.553-26.681-66.378-26.681-26.826-66.318-26.826-17.962 0-33.437 6.782-15.476 6.783-27.215 18.218h-56.349v-221.002h216.174q-11.587-16.608-16.38-35.883-4.794-19.276-4.794-39.116 0-74.167 52.017-126.084t126.327-51.917q74.309 0 125.984 51.917Q658.001-789.167 658.001-715q0 19.84-4.794 39.116-4.793 19.275-16.38 35.883h216.174v221.002h-56.349q-11.739-11.435-27.06-18.218-15.321-6.782-33.592-6.782-39.637 0-66.318 26.62-26.681 26.621-26.681 66.174 0 39.553 26.681 66.378 26.681 26.826 66.318 26.826 18.271 0 33.592-6.782 15.321-6.783 27.06-18.218h56.349Z"/></svg>

<svg xmlns="http://www.w3.org/2000/svg" width="48" height="48" viewBox="0 -960 960 960"><path d="M853-283v216H107v-216h56.35q11.74 11.43 27.21 18.22Q206.04-258 224-258q39.64 0 66.32-26.62Q317-311.24 317-350.79q0-39.56-26.68-66.38Q263.64-444 224-444q-17.96 0-33.44 6.78-15.47 6.79-27.21 18.22H107v-221h216.17q-11.58-16.61-16.38-35.88Q302-695.16 302-715q0-74.17 52.02-126.08Q406.03-893 480.34-893t125.99 51.92Q658-789.17 658-715q0 19.84-4.79 39.12-4.8 19.27-16.38 35.88H853v221h-56.35q-11.74-11.43-27.06-18.22Q754.27-444 736-444q-39.64 0-66.32 26.62Q643-390.76 643-351.21q0 39.56 26.68 66.38Q696.36-258 736-258q18.27 0 33.59-6.78 15.32-6.79 27.06-18.22H853Z"/></svg>
